src/assets/header-icons/phone.svg

<svg xmlns="http://www.w3.org/2000/svg" viewBox="0 0 24 24" width="18" height="18" fill="rgba(58,58,156,1)"><path d="M9.36556 10.6821C10.302 12.3288 11.6712 13.698 13.3179 14.6344L14.2024 13.3961C14.4965 12.9845 15.0516 12.8573 15.4956 13.0998C16.9024 13.8683 18.4571 14.3353 20.0789 14.4637C20.599 14.5049 21 14.9389 21 15.4606V19.9234C21 20.4361 20.6122 20.8657 20.1022 20.9181C19.5723 20.9726 19.0377 21 18.5 21C9.93959 21 3 14.0604 3 5.5C3 4.96227 3.02742 4.42771 3.08189 3.89776C3.1343 3.38775 3.56394 3 4.07665 3H8.53942C9.0611 3 9.49513 3.40104 9.5363 3.92109C9.66467 5.54288 10.1317 7.09764 10.9002 8.50444C11.1427 8.9484 11.0155 9.50354 10.6039 9.79757L9.36556 10.6821ZM6.84425 10.0252L8.7442 8.66809C8.20547 7.50514 7.83628 6.27183 7.64727 5H5.00907C5.00303 5.16632 5 5.333 5 5.5C5 12.9558 11.0442 19 18.5 19C18.667 19 18.8337 18.997 19 18.9909V16.3527C17.7282 16.1637 16.4949 15.7945 15.3319 15.2558L13.9748 17.1558C13.4258 16.9425 12.8956 16.6915 12.3874 16.4061L12.3293 16.373C10.3697 15.2587 8.74134 13.6303 7.627 11.6707L7.59394 11.6126C7.30849 11.1044 7.05754 10.5742 6.84425 10.0252Z"></path></svg>

<svg xmlns="http://www.w3.org/2000/svg" width="18" height="18" fill="rgba(58,58,156,1)" viewBox="0 0 24 24"><path d="M9.366 10.682a10.56 10.56 0 0 0 3.952 3.952l.884-1.238a1 1 0 0 1 1.294-.296 11.4 11.4 0 0 0 4.583 1.364 1 1 0 0 1 .921.997v4.462a1 1 0 0 1-.898.995Q19.307 21 18.5 21C9.94 21 3 14.06 3 5.5q0-.807.082-1.602A1 1 0 0 1 4.077 3h4.462a1 1 0 0 1 .997.921A11.4 11.4 0 0 0 10.9 8.504a1 1 0 0 1-.296 1.294zm-2.522-.657 1.9-1.357A13.4 13.4 0 0 1 7.647 5H5.01Q5 5.25 5 5.5C5 12.956 11.044 19 18.5 19q.25 0 .5-.01v-2.637a13.4 13.4 0 0 1-3.668-1.097l-1.357 1.9a12.5 12.5 0 0 1-1.588-.75l-.058-.033a12.56 12.56 0 0 1-4.702-4.702l-.033-.058a12.4 12.4 0 0 1-.75-1.588"/></svg>
